Obsidian-SemiLight/actions/22s/draw-triangle1.svg

<svg viewBox="0 0 22 22" xmlns="http://www.w3.org/2000/svg"><path d="m19 4-1 .5722656-13 7.4277344 13 7.427734 1 .572266v-1.15625-13.84375zm-1 1.5839844v12.6874996l-10.9765625-6.271484z" fill="#4d4d4d" transform="translate(-.99999 -.99999)"/></svg>

<svg xmlns="http://www.w3.org/2000/svg" viewBox="0 0 22 22">
  <defs id="defs3051">
    <style type="text/css" id="current-color-scheme">
      .ColorScheme-Text {
        color:#4d4d4d;
      }
      </style>
  </defs>
 <path 
    style="fill:currentColor;fill-opacity:1;stroke:none" 
	d="M 19,4 18,4.5722656 5,12 18,19.427734 19,20 19,18.84375 19,5 19,4 Z M 18,5.5839844 18,18.271484 7.0234375,12 18,5.5839844 Z" transform="translate(-.99999-.99999)"
    class="ColorScheme-Text"
    />  
</svg>
